X: 25429
T: Marcha De Breixo
R: reel
M: 4/4
K: Ddorian
z2 B2 d2 d2|c2 e2 e2 f2|g2 d2dc BA|Bc d2d4|
z2 B2 d2 d2|c2 e2 e2 f2|g2 d2dc BA|Bc d2dBdB|
G8|GB A2 A3 B|dc cB BA ^FG|A4 A3 B|
dc cB BA ^FG|AB cB dc AB|G8|GB A2 A3 B|
dc cB BA ^FG|A4 A3 B|dc cB BA ^FG|AB cB dc AB|
G8|

